build/Karasa-Jaga/scalable/apps/gnome-do-symbolic.svg

<svg height="16" width="16" xmlns="http://www.w3.org/2000/svg"><path d="m2 2c-1.108 0-2 .892-2 2v10c0 1.108.892 2 2 2h12c1.108 0 2-.892 2-2v-10c0-1.108-.892-2-2-2zm6.5625 2c.134251.0233656.218751.1134665.21875.34375v1.46875c.299919.077419.645256.22389.90625.375l1.0625-.96875c.335981-.419071.585882-.122791.90625.25.300156.349272.450602.4555809.125.78125l-.9375 1.0625c.158474.262819.295269.63367.375.9375h1.40625c.460469 0 .375.289435.375.75 0 .460567.02297.78125-.4375.78125h-1.34375c-.079884.305823-.216043.642624-.375.90625l1 1.0625c.371282.325669.069581.528902-.25.875-.325838.352876-.571623.527051-.90625.15625l-1-.9375c-.260993.151108-.606331.266331-.90625.34375l.03125 1.4375c0 .460566-.352029.375-.8125.375-.460472 0-.75.054317-.75-.40625l.03125-1.40625c-.299918-.077419-.67651-.192642-.9375-.34375l-1 .96875c-.325603.325668-.5241113.079489-.875-.21875-.348898-.296545-.6153081-.53094-.25-.90625l.9375-1c-.158475-.262821-.2952703-.602425-.375-.90625h-1.40625c-.460471 0-.34375-.320683-.34375-.78125 0-.460565-.1479719-.75.3125-.75h1.4375c.079884-.305826.2160411-.673874.375-.9375l-.9375-1.03125c-.270911-.265716-.166449-.4111272.25-.8125.184284-.177613.2875367-.3124997.5-.3125.212465 0 .2434474-.037836.40625.125l.96875.90625c.260991-.15111.606332-.2975829.90625-.375v-1.4375c0-.460567.289528-.3437498.75-.34375.230236 0 .428249-.0546156.5625-.03125zm-.5625 3.46875c-.847034 0-1.53125.684042-1.53125 1.53125s.684216 1.53125 1.53125 1.53125c.847032 0 1.53125-.684042 1.53125-1.53125s-.684219-1.53125-1.53125-1.53125z" fill="#fff" opacity=".6"/><path d="m2 1c-1.108 0-2 .892-2 2v10c0 1.108.892 2 2 2h12c1.108 0 2-.892 2-2v-10c0-1.108-.892-2-2-2zm6.5625 2c.134251.0233656.218751.1134665.21875.34375v1.46875c.299919.077419.645256.2238897.90625.375l1.0625-.96875c.335981-.419071.585882-.122791.90625.25.300156.349272.450602.4555809.125.78125l-.9375 1.0625c.158474.262819.295269.63367.375.9375h1.40625c.460469 0 .375.289435.375.75 0 .460567.02297.78125-.4375.78125h-1.34375c-.079884.305823-.216043.642624-.375.90625l1 1.0625c.371282.325669.069581.528902-.25.875-.325838.352876-.571623.527051-.90625.15625l-1-.9375c-.260993.151108-.606331.266331-.90625.34375l.03125 1.4375c0 .460566-.352029.375-.8125.375-.460472 0-.75.054317-.75-.40625l.03125-1.40625c-.299918-.077419-.67651-.192642-.9375-.34375l-1 .96875c-.325603.325668-.5241113.079489-.875-.21875-.348898-.296545-.6153081-.53094-.25-.90625l.9375-1c-.158475-.262821-.2952703-.602425-.375-.90625h-1.40625c-.460471 0-.34375-.320683-.34375-.78125 0-.460565-.1479719-.75.3125-.75h1.4375c.079884-.305826.2160411-.673874.375-.9375l-.9375-1.03125c-.270911-.265716-.166449-.4111272.25-.8125.184284-.177613.2875367-.3124997.5-.3125.212465 0 .2434474-.037836.40625.125l.96875.90625c.260991-.15111.606332-.2975829.90625-.375v-1.4375c0-.460567.289528-.3437498.75-.34375.230236 0 .428249-.0546156.5625-.03125zm-.5625 3.46875c-.847034 0-1.53125.684042-1.53125 1.53125s.684216 1.53125 1.53125 1.53125c.847032 0 1.53125-.684042 1.53125-1.53125s-.684219-1.53125-1.53125-1.53125z" fill="#bebebe"/></svg>

<?xml version="1.0" encoding="UTF-8" standalone="no"?>
<!-- Created with Inkscape (http://www.inkscape.org/) -->

<svg
   xmlns:dc="http://purl.org/dc/elements/1.1/"
   xmlns:cc="http://creativecommons.org/ns#"
   xmlns:rdf="http://www.w3.org/1999/02/22-rdf-syntax-ns#"
   xmlns:svg="http://www.w3.org/2000/svg"
   xmlns="http://www.w3.org/2000/svg"
   xmlns:xlink="http://www.w3.org/1999/xlink"
   xmlns:sodipodi="http://sodipodi.sourceforge.net/DTD/sodipodi-0.dtd"
   xmlns:inkscape="http://www.inkscape.org/namespaces/inkscape"
   version="1.0"
   width="16"
   height="16"
   id="svg3239"
   inkscape:version="0.48.3.1 r9886"
   sodipodi:docname="gnome-do-symbolic.svg">
  <metadata
     id="metadata13">
    <rdf:RDF>
      <cc:Work
         rdf:about="">
        <dc:format>image/svg+xml</dc:format>
        <dc:type
           rdf:resource="http://purl.org/dc/dcmitype/StillImage" />
        <dc:title></dc:title>
      </cc:Work>
    </rdf:RDF>
  </metadata>
  <sodipodi:namedview
     pagecolor="#ffffff"
     bordercolor="#666666"
     borderopacity="1"
     objecttolerance="10"
     gridtolerance="10"
     guidetolerance="10"
     inkscape:pageopacity="0"
     inkscape:pageshadow="2"
     inkscape:window-width="1366"
     inkscape:window-height="711"
     id="namedview11"
     showgrid="false"
     inkscape:zoom="14.75"
     inkscape:cx="8"
     inkscape:cy="8"
     inkscape:window-x="0"
     inkscape:window-y="0"
     inkscape:window-maximized="1"
     inkscape:current-layer="svg3239" />
  <defs
     id="defs3241">
    <linearGradient
       id="linearGradient3587-6-5">
      <stop
         id="stop3589-9-2"
         style="stop-color:#000000;stop-opacity:1"
         offset="0" />
      <stop
         id="stop3591-7-4"
         style="stop-color:#363636;stop-opacity:1"
         offset="1" />
    </linearGradient>
    <linearGradient
       x1="32.361256"
       y1="4.561305"
       x2="32.361256"
       y2="18.561304"
       id="linearGradient3232"
       xlink:href="#linearGradient3587-6-5"
       gradientUnits="userSpaceOnUse"
       gradientTransform="translate(-24.361257,-3.561305)" />
    <linearGradient
       gradientUnits="userSpaceOnUse"
       y2="7.984375"
       x2="14.8125"
       y1="7.984375"
       x1="1.1875"
       id="linearGradient3806"
       xlink:href="#linearGradient3800"
       inkscape:collect="always" />
    <linearGradient
       gradientTransform="translate(-4,27.000017)"
       gradientUnits="userSpaceOnUse"
       y2="1024.1722"
       x2="14.801802"
       y1="1010.4072"
       x1="14.801802"
       id="linearGradient4542"
       xlink:href="#linearGradient4536"
       inkscape:collect="always" />
    <linearGradient
       id="linearGradient3702-501-757">
      <stop
         offset="0"
         style="stop-color:#181818;stop-opacity:0"
         id="stop2895" />
      <stop
         offset="0.5"
         style="stop-color:#181818;stop-opacity:1"
         id="stop2897" />
      <stop
         offset="1"
         style="stop-color:#181818;stop-opacity:0"
         id="stop2899" />
    </linearGradient>
    <linearGradient
       y2="39.999443"
       x2="25.058096"
       y1="47.027729"
       x1="25.058096"
       gradientUnits="userSpaceOnUse"
       id="linearGradient3136"
       xlink:href="#linearGradient3702-501-757"
       inkscape:collect="always" />
    <linearGradient
       id="linearGradient3688-464-309">
      <stop
         offset="0"
         style="stop-color:#181818;stop-opacity:1"
         id="stop2889" />
      <stop
         offset="1"
         style="stop-color:#181818;stop-opacity:0"
         id="stop2891" />
    </linearGradient>
    <radialGradient
       r="2.5"
       fy="43.5"
       fx="4.9929786"
       cy="43.5"
       cx="4.9929786"
       gradientTransform="matrix(2.003784,0,0,1.4,-20.01187,-104.4)"
       gradientUnits="userSpaceOnUse"
       id="radialGradient3134"
       xlink:href="#linearGradient3688-464-309"
       inkscape:collect="always" />
    <linearGradient
       id="linearGradient3688-166-749">
      <stop
         offset="0"
         style="stop-color:#181818;stop-opacity:1"
         id="stop2883" />
      <stop
         offset="1"
         style="stop-color:#181818;stop-opacity:0"
         id="stop2885" />
    </linearGradient>
    <radialGradient
       r="2.5"
       fy="43.5"
       fx="4.9929786"
       cy="43.5"
       cx="4.9929786"
       gradientTransform="matrix(2.003784,0,0,1.4,27.98813,-17.4)"
       gradientUnits="userSpaceOnUse"
       id="radialGradient3132"
       xlink:href="#linearGradient3688-166-749"
       inkscape:collect="always" />
    <linearGradient
       id="linearGradient4536">
      <stop
         id="stop4538"
         offset="0"
         style="stop-color:#ffffff;stop-opacity:1;" />
      <stop
         style="stop-color:#ffffff;stop-opacity:0.15686275;"
         offset="0.08246523"
         id="stop4546" />
      <stop
         style="stop-color:#ffffff;stop-opacity:0.23529412;"
         offset="0.936414"
         id="stop4544" />
      <stop
         id="stop4540"
         offset="1"
         style="stop-color:#ffffff;stop-opacity:0.39215687;" />
    </linearGradient>
    <linearGradient
       id="linearGradient3771">
      <stop
         id="stop3773"
         offset="0"
         style="stop-color:#7ec6e4;stop-opacity:1;" />
      <stop
         id="stop3775"
         offset="1"
         style="stop-color:#2f87da;stop-opacity:1;" />
    </linearGradient>
    <linearGradient
       id="linearGradient3779">
      <stop
         id="stop3781"
         offset="0"
         style="stop-color:#bebebe;stop-opacity:1;" />
      <stop
         id="stop3783"
         offset="1"
         style="stop-color:#a0a0a0;stop-opacity:1;" />
    </linearGradient>
    <linearGradient
       id="linearGradient3800"
       inkscape:collect="always">
      <stop
         id="stop3802"
         offset="0"
         style="stop-color:#000000;stop-opacity:0;" />
      <stop
         style="stop-color:#000000;stop-opacity:1;"
         offset="0.5"
         id="stop3808" />
      <stop
         id="stop3804"
         offset="1"
         style="stop-color:#000000;stop-opacity:0;" />
    </linearGradient>
    <linearGradient
       id="linearGradient3787">
      <stop
         id="stop3789"
         offset="0"
         style="stop-color:#1f5aad;stop-opacity:1;" />
      <stop
         id="stop3791"
         offset="1"
         style="stop-color:#4589b6;stop-opacity:1;" />
    </linearGradient>
  </defs>
  <g
     id="layer1">
    <path
       d="M 2,2 C 0.892,2 0,2.892 0,4 L 0,14 C 0,15.108 0.892,16 2,16 L 14,16 C 15.108,16 16,15.108 16,14 L 16,4 C 16,2.892 15.108,2 14,2 L 2,2 z M 8.5625,4 C 8.696751,4.0233656 8.781251,4.1134665 8.78125,4.34375 L 8.78125,5.8125 C 9.081169,5.889919 9.426506,6.03639 9.6875,6.1875 L 10.75,5.21875 C 11.085981,4.799679 11.335882,5.095959 11.65625,5.46875 C 11.956406,5.818022 12.106852,5.9243309 11.78125,6.25 L 10.84375,7.3125 C 11.002224,7.575319 11.139019,7.94617 11.21875,8.25 L 12.625,8.25 C 13.085469,8.25 13,8.539435 13,9 C 13,9.460567 13.02297,9.78125 12.5625,9.78125 L 11.21875,9.78125 C 11.138866,10.087073 11.002707,10.423874 10.84375,10.6875 L 11.84375,11.75 C 12.215032,12.075669 11.913331,12.278902 11.59375,12.625 C 11.267912,12.977876 11.022127,13.152051 10.6875,12.78125 L 9.6875,11.84375 C 9.426507,11.994858 9.081169,12.110081 8.78125,12.1875 L 8.8125,13.625 C 8.8125,14.085566 8.460471,14 8,14 C 7.539528,14 7.25,14.054317 7.25,13.59375 L 7.28125,12.1875 C 6.981332,12.110081 6.60474,11.994858 6.34375,11.84375 L 5.34375,12.8125 C 5.018147,13.138168 4.8196387,12.891989 4.46875,12.59375 C 4.119852,12.297205 3.8534419,12.06281 4.21875,11.6875 L 5.15625,10.6875 C 4.997775,10.424679 4.8609797,10.085075 4.78125,9.78125 L 3.375,9.78125 C 2.914529,9.78125 3.03125,9.460567 3.03125,9 C 3.03125,8.539435 2.8832781,8.25 3.34375,8.25 L 4.78125,8.25 C 4.861134,7.944174 4.9972911,7.576126 5.15625,7.3125 L 4.21875,6.28125 C 3.947839,6.015534 4.052301,5.8701228 4.46875,5.46875 C 4.653034,5.291137 4.7562867,5.1562503 4.96875,5.15625 C 5.181215,5.15625 5.2121974,5.118414 5.375,5.28125 L 6.34375,6.1875 C 6.604741,6.03639 6.950082,5.8899171 7.25,5.8125 L 7.25,4.375 C 7.25,3.914433 7.539528,4.0312502 8,4.03125 C 8.230236,4.03125 8.428249,3.9766344 8.5625,4 z M 8,7.46875 C 7.152966,7.46875 6.46875,8.152792 6.46875,9 C 6.46875,9.847208 7.152966,10.53125 8,10.53125 C 8.847032,10.53125 9.53125,9.847208 9.53125,9 C 9.53125,8.152792 8.847031,7.46875 8,7.46875 z"
       id="path3235"
       style="opacity:0.6;fill:#ffffff;fill-opacity:1;fill-rule:nonzero;stroke:none;stroke-width:1;stroke-linecap:square;stroke-linejoin:miter;marker:none;marker-start:none;marker-mid:none;marker-end:none;stroke-miterlimit:4;stroke-dasharray:none;stroke-dashoffset:0;stroke-opacity:1;visibility:visible;display:inline;overflow:visible;enable-background:accumulate" />
    <path
       d="M 2,1 C 0.892,1 0,1.892 0,3 L 0,13 C 0,14.108 0.892,15 2,15 L 14,15 C 15.108,15 16,14.108 16,13 L 16,3 C 16,1.892 15.108,1 14,1 L 2,1 z M 8.5625,3 C 8.696751,3.0233656 8.781251,3.1134665 8.78125,3.34375 L 8.78125,4.8125 C 9.081169,4.889919 9.426506,5.0363897 9.6875,5.1875 L 10.75,4.21875 C 11.085981,3.799679 11.335882,4.095959 11.65625,4.46875 C 11.956406,4.818022 12.106852,4.9243309 11.78125,5.25 L 10.84375,6.3125 C 11.002224,6.575319 11.139019,6.94617 11.21875,7.25 L 12.625,7.25 C 13.085469,7.25 13,7.539435 13,8 C 13,8.460567 13.02297,8.78125 12.5625,8.78125 L 11.21875,8.78125 C 11.138866,9.087073 11.002707,9.423874 10.84375,9.6875 L 11.84375,10.75 C 12.215032,11.075669 11.913331,11.278902 11.59375,11.625 C 11.267912,11.977876 11.022127,12.152051 10.6875,11.78125 L 9.6875,10.84375 C 9.426507,10.994858 9.081169,11.110081 8.78125,11.1875 L 8.8125,12.625 C 8.8125,13.085566 8.460471,13 8,13 C 7.539528,13 7.25,13.054317 7.25,12.59375 L 7.28125,11.1875 C 6.981332,11.110081 6.60474,10.994858 6.34375,10.84375 L 5.34375,11.8125 C 5.018147,12.138168 4.8196387,11.891989 4.46875,11.59375 C 4.119852,11.297205 3.8534419,11.06281 4.21875,10.6875 L 5.15625,9.6875 C 4.997775,9.424679 4.8609797,9.085075 4.78125,8.78125 L 3.375,8.78125 C 2.914529,8.78125 3.03125,8.460567 3.03125,8 C 3.03125,7.539435 2.8832781,7.25 3.34375,7.25 L 4.78125,7.25 C 4.861134,6.944174 4.9972911,6.576126 5.15625,6.3125 L 4.21875,5.28125 C 3.947839,5.015534 4.052301,4.8701228 4.46875,4.46875 C 4.653034,4.291137 4.7562867,4.1562503 4.96875,4.15625 C 5.181215,4.15625 5.2121974,4.118414 5.375,4.28125 L 6.34375,5.1875 C 6.604741,5.03639 6.950082,4.8899171 7.25,4.8125 L 7.25,3.375 C 7.25,2.914433 7.539528,3.0312502 8,3.03125 C 8.230236,3.03125 8.428249,2.9766344 8.5625,3 z M 8,6.46875 C 7.152966,6.46875 6.46875,7.152792 6.46875,8 C 6.46875,8.847208 7.152966,9.53125 8,9.53125 C 8.847032,9.53125 9.53125,8.847208 9.53125,8 C 9.53125,7.152792 8.847031,6.46875 8,6.46875 z"
       id="rect2386"
       style="opacity:1;fill:#bebebe;fill-opacity:1;fill-rule:nonzero;stroke:none;stroke-width:1;stroke-linecap:square;stroke-linejoin:miter;marker:none;marker-start:none;marker-mid:none;marker-end:none;stroke-miterlimit:4;stroke-dasharray:none;stroke-dashoffset:0;stroke-opacity:1;visibility:visible;display:inline;overflow:visible;enable-background:accumulate" />
  </g>
</svg>
